StripePaymentSheet/StripePaymentSheet/Resources/StripePaymentSheet.xcassets/PaymentMethods/icon-pm-eps.imageset/icon-pm-eps-mod.svg

<svg fill="none" height="16" viewBox="0 0 22 16" width="22" xmlns="http://www.w3.org/2000/svg" xmlns:xlink="http://www.w3.org/1999/xlink"><clipPath id="a"><path d="m0 0h22v16h-22z"/></clipPath><g clip-path="url(#a)"><path clip-rule="evenodd" d="m8.34003 13.0906c-.31363.2543-.71366.4061-1.14698.4061h-5.37655c-1.016362 0-1.8165-.8497-1.8165-1.8378v-5.40528c0-.8958.645115-1.62054 1.48015-1.77619-.07274-.1345-.11043-.28262-.11043-.41977v-.71126l.00073-.05397c.05227-1.67334 1.44661-2.992435 3.13363-2.992435 1.71887 0 3.13575 1.370035 3.13575 3.088695v.66897c0 .15725-.04296.30003-.10974.42026.84282.15945 1.47946.9053 1.47946 1.791l-.00075.5998c.64676-.90899 1.7026-1.50424 2.8984-1.50424 1.2365 0 2.3199.63421 2.9573 1.59372.3636-.93001 1.2665-1.59372 2.3253-1.59372h3.5384v2.80765h-.0468c.5174.46301.8436 1.13711.8436 1.87907 0 1.3545-1.0913 2.5076-2.4607 2.5274l-.0101.0002-7.8836-.0001v3.1213h-2.83057z" fill="#fff" fill-rule="evenodd"/><path d="m19.0542 8.23716c.974.01411 1.7708.82932 1.7708 1.81404 0 .9847-.7968 1.8134-1.7708 1.8275h-5.2902c.6609-.2754.9864-.8262 1.3212-1.4689h3.9437c.2074 0 .3761-.1531.3761-.361 0-.20796-.1687-.37339-.3761-.37339h-1.8391c-.9907 0-1.7967-.81197-1.7967-1.80546 0-.9935.806-1.80547 1.7967-1.80547h2.8384v1.40765h-2.8384c-.2073 0-.3761.18306-.3761.39099 0 .20794.1688.37404.3761.37404zm-7.147-2.17268c1.5802 0 2.8597 1.29654 2.8597 2.89591 0 1.59941-1.2825 2.91831-2.8627 2.91831h-1.4336v3.1213h-1.43056v-6.03453c0-1.59937 1.28706-2.90099 2.86716-2.90099zm0 4.34532c.7952 0 1.4421-.63946 1.4421-1.44941s-.6469-1.46892-1.4421-1.46892c-.7951 0-1.4366.65897-1.4366 1.46892v1.44941z" fill="#5f6360"/><path d="m4.51091 11.8787h3.7817c-.08879.5202-.5485.918-1.09961.918h-5.37655c-.61406 0-1.116499-.5204-1.116499-1.1378v-5.40527c0-.61738.502439-1.10718 1.116499-1.10718h5.37655c.61409 0 1.1165.5051 1.1165 1.12248l-.0052 4.14087h-3.79339c-.58119 0-1.08516-.2754-1.33435-.76499h4.2198v-.70224c0-1.59676-1.30334-2.8948-2.8916-2.8948-1.35045 0-2.48629.94037-2.79624 2.20322 0 0-.08419.42288-.08419.6985 0 .27559.08894.69419.08894.69419.30773 1.26592 1.44496 2.23502 2.79764 2.23502zm-.00615-4.45688c.57899 0 1.08247.35632 1.33267.81534h-2.66529c.2502-.45902.75368-.81534 1.33262-.81534zm2.43502-4.03313v.66897c0 .08587-.07527.17076-.16281.17076h-.89616c-.08754 0-.15856-.08489-.15856-.17076v-.66897c0-.65878-.54575-1.19476-1.21752-1.19476s-1.21753.53598-1.21753 1.19476v.66897c0 .08587-.07677.17076-.16431.17076h-.89613c-.08754 0-.15709-.08489-.15709-.17076v-.71784c0-.0056-.00046-.01089.00012-.01634.03534-1.28901 1.1113-2.32348 2.43424-2.32348 1.34521 0 2.43575 1.06945 2.43575 2.38869z" fill="#a41760"/></g></svg>

<svg width="22" height="16" viewBox="0 0 22 16" fill="none" xmlns="http://www.w3.org/2000/svg">
<g clip-path="url(#clip0_788_23089)">
<path fill-rule="evenodd" clip-rule="evenodd" d="M8.34003 13.0906C8.0264 13.3449 7.62637 13.4967 7.19305 13.4967H1.8165C0.800138 13.4967 0 12.647 0 11.6589V6.25362C0 5.35782 0.645115 4.63308 1.48015 4.47743C1.40741 4.34293 1.36972 4.19481 1.36972 4.05766V3.3464L1.37045 3.29243C1.42272 1.61909 2.81706 0.299995 4.50408 0.299995C6.22295 0.299995 7.63983 1.67003 7.63983 3.38869V4.05766C7.63983 4.21491 7.59687 4.35769 7.53009 4.47792C8.37291 4.63737 9.00955 5.38322 9.00955 6.26892L9.0088 6.86872C9.65556 5.95973 10.7114 5.36448 11.9072 5.36448C13.1437 5.36448 14.2271 5.99869 14.8645 6.9582C15.2281 6.02819 16.131 5.36448 17.1898 5.36448H20.7282V8.17213H20.6814C21.1988 8.63514 21.525 9.30924 21.525 10.0512C21.525 11.4057 20.4337 12.5588 19.0643 12.5786L19.0542 12.5788L11.1706 12.5787V15.7H8.34003V13.0906Z" fill="white"/>
<path d="M19.0542 8.23716C20.0282 8.25127 20.825 9.06648 20.825 10.0512C20.825 11.0359 20.0282 11.8646 19.0542 11.8787H13.764C14.4249 11.6033 14.7504 11.0525 15.0852 10.4098H19.0289C19.2363 10.4098 19.405 10.2567 19.405 10.0488C19.405 9.84084 19.2363 9.67541 19.0289 9.67541H17.1898C16.1991 9.67541 15.3931 8.86344 15.3931 7.86995C15.3931 6.87645 16.1991 6.06448 17.1898 6.06448H20.0282V7.47213H17.1898C16.9825 7.47213 16.8137 7.65519 16.8137 7.86312C16.8137 8.07106 16.9825 8.23716 17.1898 8.23716H19.0542ZM11.9072 6.06448C13.4874 6.06448 14.7669 7.36102 14.7669 8.96039C14.7669 10.5598 13.4844 11.8787 11.9042 11.8787H10.4706V15H9.04004V8.96547C9.04004 7.3661 10.3271 6.06448 11.9072 6.06448ZM11.9072 10.4098C12.7024 10.4098 13.3493 9.77034 13.3493 8.96039C13.3493 8.15044 12.7024 7.49147 11.9072 7.49147C11.1121 7.49147 10.4706 8.15044 10.4706 8.96039V10.4098H11.9072Z" fill="#5F6360"/>
<path d="M4.51091 11.8787H8.29261C8.20382 12.3989 7.74411 12.7967 7.193 12.7967H1.81645C1.20239 12.7967 0.699951 12.2763 0.699951 11.6589V6.25363C0.699951 5.63625 1.20239 5.14645 1.81645 5.14645H7.193C7.80709 5.14645 8.3095 5.65155 8.3095 6.26893L8.3043 10.4098H4.51091C3.92972 10.4098 3.42575 10.1344 3.17656 9.64481H7.39636V8.94257C7.39636 7.34581 6.09302 6.04777 4.50476 6.04777C3.15431 6.04777 2.01847 6.98814 1.70852 8.25099C1.70852 8.25099 1.62433 8.67387 1.62433 8.94949C1.62433 9.22508 1.71327 9.64368 1.71327 9.64368C2.021 10.9096 3.15823 11.8787 4.51091 11.8787ZM4.50476 7.42182C5.08375 7.42182 5.58723 7.77814 5.83743 8.23716H3.17214C3.42234 7.77814 3.92582 7.42182 4.50476 7.42182ZM6.93978 3.38869V4.05766C6.93978 4.14353 6.86451 4.22842 6.77697 4.22842H5.88081C5.79327 4.22842 5.72225 4.14353 5.72225 4.05766V3.38869C5.72225 2.72991 5.1765 2.19393 4.50473 2.19393C3.83296 2.19393 3.2872 2.72991 3.2872 3.38869V4.05766C3.2872 4.14353 3.21043 4.22842 3.12289 4.22842H2.22676C2.13922 4.22842 2.06967 4.14353 2.06967 4.05766V3.33982C2.06967 3.33422 2.06921 3.32893 2.06979 3.32348C2.10513 2.03447 3.18109 1 4.50403 1C5.84924 1 6.93978 2.06945 6.93978 3.38869Z" fill="#A41760"/>
</g>
<defs>
<clipPath id="clip0_788_23089">
<rect width="22" height="16" fill="white"/>
</clipPath>
</defs>
</svg>
